2 Export/Icons/Brands/LiveJournal.svg

<svg xmlns="http://www.w3.org/2000/svg" xmlns:xlink="http://www.w3.org/1999/xlink" width="24" height="24" viewBox="0 0 24 24">
  <defs>
    <path id="livejournal-a" d="M16.5675,14.022 C15.4335,14.52 14.523,15.43575 14.03175,16.57125 L17.23425,17.2335 L16.56975,14.022 L16.5675,14.022 L16.5675,14.022 Z M4.85625,9.23775 L3,7.3875 C3.84375,5.42775 5.412,3.855 7.36725,3 L7.37175,3 L9.2235,4.84725 C10.2495,4.404 11.3805,4.1565 12.57075,4.1565 C17.22525,4.1565 21,7.92675 21,12.57825 C21,17.22975 17.22525,21 12.57075,21 C7.91325,21 4.14,17.232 4.14,12.57825 C4.14,11.385 4.40625,10.2675 4.854,9.24 L11.71125,16.0755 C12.555,14.11575 14.12475,12.543 16.0785,11.688 L9.22725,4.848 L9.22125,4.848 C7.26675,5.703 5.7,7.278 4.854,9.2355 L4.85625,9.23775 Z"/>
  </defs>
  <g fill="none" fill-rule="evenodd">
    <polygon points="0 0 24 0 24 24 0 24"/>
    <mask id="livejournal-b" fill="#fff">
      <use xlink:href="#livejournal-a"/>
    </mask>
    <use fill="#000" xlink:href="#livejournal-a"/>
    <g fill="#000" mask="url(#livejournal-b)">
      <rect width="24" height="24"/>
    </g>
  </g>
</svg>

<svg xmlns="http://www.w3.org/2000/svg" xmlns:xlink="http://www.w3.org/1999/xlink" width="24" height="24" viewBox="0 0 24 24">
  <defs>
    <path id="livejournal-a" d="M16.567 14.022a4.93 4.93 0 0 0-2.535 2.55l3.202.662-.664-3.212h-.003zM4.857 9.238L3 7.388A8.445 8.445 0 0 1 7.367 3h.005l1.851 1.847a8.418 8.418 0 0 1 3.348-.69c4.654 0 8.429 3.77 8.429 8.421C21 17.23 17.225 21 12.57 21c-4.657 0-8.43-3.768-8.43-8.422 0-1.193.266-2.31.714-3.338l6.857 6.836a8.45 8.45 0 0 1 4.367-4.388l-6.85-6.84H9.22a8.464 8.464 0 0 0-4.367 4.388l.002.002z"/>
  </defs>
  <g fill="none" fill-rule="evenodd">
    <polygon points="0 0 24 0 24 24 0 24"/>
    <mask id="livejournal-b" fill="#fff">
      <use xlink:href="#livejournal-a"/>
    </mask>
    <use fill="#000" xlink:href="#livejournal-a"/>
    <g fill="#000" mask="url(#livejournal-b)">
      <rect width="24" height="24"/>
    </g>
  </g>
</svg>
